svg/Filled/question-circle_filled.svg

<svg viewBox="0 0 24 24" xmlns="http://www.w3.org/2000/svg" width="24" height="24"><path fill-rule="evenodd" d="M12 1a11 11 0 1 1 0 22 11 11 0 0 1 0-22m0 14.08a1 1 0 1 0 0 2 1 1 0 0 0 0-2m.08-8.17c-1.23 0-2.34.73-2.82 1.85l-.1.23-.04.12a1 1 0 0 0 1.9.65l.04-.13.07-.15c.18-.35.55-.57.95-.57h.1c.38 0 .7.22.85.56v.02q.07.15.07.3v.02q-.02.42-.36.67l-.1.05-.14.06a2.6 2.6 0 0 0-1.49 2.32 1 1 0 0 0 2 0q.02-.33.32-.5l.14-.06.18-.09a2.8 2.8 0 0 0 1.45-2.45V9.8q0-.56-.22-1.09V8.7a2.9 2.9 0 0 0-2.7-1.8z" clip-rule="evenodd"/></svg>

<svg viewBox="0 0 24 24" xmlns="http://www.w3.org/2000/svg" width="24" height="24"><path fill-rule="evenodd" d="M12 1a11 11 0 1 1 0 22 11 11 0 0 1 0-22m0 14.08a1 1 0 1 0 0 2 1 1 0 0 0 0-2M12.08 6.91C10.85 6.91 9.74 7.64 9.26 8.76L9.12 9.11A1 1 0 0 0 11.02 9.76L11.13 9.48C11.31 9.13 11.68 8.91 12.08 8.91L12.18 8.91C12.56 8.91 12.88 9.13 13.03 9.47L13.03 9.49Q13.1 9.64 13.1 9.79L13.1 9.81Q13.08 10.23 12.74 10.48L12.5 10.59A2.6 2.6 0 0 0 11.01 12.91A1 1 0 0 0 13.01 12.91Q13.03 12.58 13.33 12.41L13.65 12.26A2.8 2.8 0 0 0 15.1 9.81L15.1 9.8Q15.1 9.24 14.88 8.71L14.88 8.7A2.9 2.9 0 0 0 12.18 6.9Z" clip-rule="evenodd"/></svg>
